X:1
T:Ruby, my dear
M:4/4
L:1/4
C:Thelonious Monk
Q:1/4=72
K:Eb
%%staves (chords melody)
%%text (ballad)
%%vskip 20
P:A
V:chords
"Fm7"x2 "Bb7"x2 | "Ebmaj7"x2 x2 | "Gm7"x2 "C7"x2 | "Fmaj7"x2 x2 |
"Bbm7"x2 "Eb7"x2 | "Abmaj7"x2 "(Cm7"x"F7)"x | "Bbm7"x2 "Amaj7"x2 | "Bm7"x2 "Bb7"x2 ||
V:melody clef=treble
zG-(3GF_C|B,4|z=A-(3AG_D|C4|
c2-(3cB_F|E3 (3F/C/_D/|E2-E/^F/^C/=D/|=E3^F||
P:A
V:chords
"Fm7"x2 "Bb7"x2 | "Ebmaj7"x2 x2 | "Gm7"x2 "C7"x2 | "Fmaj7"x2 x2 |
"Bbm7"x2 "Eb7"x2 | "Abmaj7"x2 "(Cm7"x"F7)"x | "Bbm7"x2 "Amaj7"x2 | "Bm7"x2 "Bb7"x2 ||
V:melody
zG-(3GF_C|B,4|z=A-(3AG_D|C4|
c2-(3cB_F|E3 (3F/C/_D/|E2-E/^F/^C/=D/|=E4||
P:B
V:chords
"Amaj7"x2 x2 | "Bm7"x2 "E7"x2 | "A6"x2 x2 | "Bb6"x "Bdim7"x3 |
"Cm7"x2 x2 | x2 "Dm7"x2 | "Ebm7"x2 x2 | "Ab7"x2 "Eb7#9"x2 ||
V:melody
=E2^F^C|=B,3^C|^F,3F,|G,G,3|
DC2D/C/|G,3=A,|E2FE|(3:2:2B,F2-F^F||
P:A
V:chords
"Fm7"x2 "Bb7"x2 | "Ebmaj7"x2 x2 | "Gm7"x2 "C7"x2 | "Fmaj7"x2 x2 |
"Bbm7"x2 "Eb7"x2 | "Abmaj7"x2 "(Cm7"x"F7)"x | "Bbm7"x2 "Amaj7"x2 | "Bm7"x2 "Bb7"x2 ||
||"Bbm7"x2 "A6"x2 |"Gb6"x2 "Bb7"x2 |"Eb7"x2"Ab7"x2|"Dbmaj7"x2 x2|]
V:melody
zG-(3GF_C|B,4|z=A-(3AG_D|C4|
c2-(3cB_F|E3 (3F/C/_D/!coda!|E2-E/^F/^C/=D/|=E4||
!coda!||E2- E/^F/ (3=E/^C/=A,/ | _A,3 =E//=D//_c//_A// | =G2_G//C//=D//F//C | _D4|]
